public/static/icons/ic_chrome.svg

<svg height="24" viewBox="0 0 24 24" width="24" xmlns="http://www.w3.org/2000/svg"><g fill="none"><path d="m2.89770175 4.18065217c5.57843735-6.4924098 15.92187375-5.21084211 19.78867695 2.37295188-2.7219662.0009908-6.9843623-.000816-9.2929102 0-1.6743526.00058285-2.7554031-.0374772-3.92610425.578827-1.37633265.7244809-2.41480055 2.0674226-2.77730605 3.64478595z" fill="#ea4335"/><path d="m8.0077305 11.9995673c0 2.2003704 1.78911005 3.9904735 3.9882597 3.9904735 2.1990914 0 3.9882015-1.7901031 3.9882015-3.9904735 0-2.2003121-1.7891101-3.99047355-3.9882015-3.99047355-2.19914965 0-3.9882597 1.79016145-3.9882597 3.99047355z" fill="#4285f4"/><path d="m13.5438183 17.2228241c-2.2385284.6652635-4.8581448-.0725064-6.29307945-2.5493802-1.0953224-1.8906446-3.98930828-6.9322857-5.30470875-9.22474615-4.60695987 7.06103695-.63640893 16.68340255 7.7271986 18.32575355z" fill="#34a853"/><path d="m15.7007348 8.00909375c1.8644306 1.73409145 2.2706255 4.54202325 1.0077106 6.71925455-.9514969 1.6403693-3.988318 6.7658824-5.4601265 9.2478269 8.6171226.5312084 14.898901-7.9142692 12.0614784-15.96708145z" fill="#fbbc05"/></g></svg>

<svg xmlns="http://www.w3.org/2000/svg" width="24" height="24" viewBox="0 0 24 24">
  <g fill="none">
    <path fill="#EA4335" d="M2.89770175,4.18065217 C8.4761391,-2.31175763 18.8195755,-1.03018994 22.6863787,6.55360405 C19.9644125,6.55459485 15.7020164,6.55278805 13.3934685,6.55360405 C11.7191159,6.5541869 10.6380654,6.51612685 9.46736425,7.13243105 C8.0910316,7.85691195 7.0525637,9.19985365 6.6900582,10.777217 L2.89770175,4.18065217 L2.89770175,4.18065217 Z"/>
    <path fill="#4285F4" d="M8.0077305,11.9995673 C8.0077305,14.1999377 9.79684055,15.9900408 11.9959902,15.9900408 C14.1950816,15.9900408 15.9841917,14.1999377 15.9841917,11.9995673 C15.9841917,9.7992552 14.1950816,8.00909375 11.9959902,8.00909375 C9.79684055,8.00909375 8.0077305,9.7992552 8.0077305,11.9995673 L8.0077305,11.9995673 Z"/>
    <path fill="#34A853" d="M13.5438183,17.2228241 C11.3052899,17.8880876 8.6856735,17.1503177 7.25073885,14.6734439 C6.15541645,12.7827993 3.26143057,7.7411582 1.9460301,5.44869775 C-2.66092977,12.5097347 1.30962117,22.1321003 9.6732287,23.7744513 L13.5438183,17.2228241 L13.5438183,17.2228241 Z"/>
    <path fill="#FBBC05" d="M15.7007348,8.00909375 C17.5651654,9.7431852 17.9713603,12.551117 16.7084454,14.7283483 C15.7569485,16.3687176 12.7201274,21.4942307 11.2483189,23.9761752 C19.8654415,24.5073836 26.1472199,16.061906 23.3097973,8.00909375 L15.7007348,8.00909375 L15.7007348,8.00909375 Z"/>
  </g>
</svg>
